X:1
T: Pottinger's Reel
C: Tom Anderson
N: as taught by Mari Black @ BSFD online class 2021-4-4
S: transcription by Lance Ramshaw
Z: 2021 John Chambers <jc:trillian.mit.edu>
M: C|
R: reel
K: F
|: C |\
"F"F3B AFAc | fgfc AFFA | "Gm"G^FGA BABd | "C7"gfed eccA | 
"F"F3B AFAc | fgfc AFFA | "Bb"BcdB "F/A"ABcA | "C/G"cBAG "F"AFF :| 
|: A |\
"F"f2cf Afcf | faga fccf | "Gm"dgg^f g2ga | "C7"bagf edcB | 
"F"A2fe f2Ac | faga fccA | "Bb"BcdB "F/A"ABcA | "C/G"cBAG "F"AFF :|
